X:1
T:The Phantom Of The Opera
T:The Phantom Of The Opera
C:Andrew Lloyd Webber
Z:All Rights Reserved
L:1/8
M:4/4
K:F
V:1 treble nm="Piano" snm="Pno."
%%MIDI program 0
V:1
"Dm" d8- | d4"Dm" d"Dbm"_d"Cm"c"B"=B |"Bb" _B8 | z8 |"Dm" d8- | d4"Dm" d"Dbm"_d"Cm"c"B"=B | %6
w: ||||||
w: ||||||
"Bb" _B8 |"Ab" _A"Bb"B z2"Bb" B"B"=B"C"c"C#m"^c |"Dm" d8- | d2"^CHRISTINE" A,2 D2 A,2 || %10
w: |||* In sleep he|
w: ||||
"Gsus4" C3 B,"Gm" B,4- |"C" B,2 G,2 C3 G, |"Dm" A,8 | z2 A,2 D2 A,2 |"Gsus4" C3 B,"Gm" B,4- | %15
w: sang to me,|_ in dreams he|came,|that voice which|calls to me|
w: |||||
"C" B,2 G,2 C3 G, |"Dm" A,8 | z2 A,2 D2 F2 |"Bbmaj7" A3 G"Gm/Bb" G4- |"C" G2 G2 c3 G |"Dm" A8- | %21
w: _ and speaks my|name.|And do I|dream a- gain?|_ for now I|find|
w: ||||||
 A4 z2 A2 |"Dm" d8- | dcBA GFED |"Bbdim" ^C8- | C2 B,2 B,3 A, |"Dm" A,8- | %27
w: _ the|phan-|* tom of the op- er- a is|there|_ in- side my|mind.|
w: ||||||
 A,4"Dm" d"Dbm"_d"Cm"c"B"=B |"Bb" _B8 |"Ab" _A"Bb" B3"Dbdim" _dc=B_B |"Gm" G8- | %31
w: _ _ _ _ _||||
w: ||||
"^PHANTOM" G2 D2 G2 D2 |"Csus4" F3 E"Cm" E4- |"F" E2 C2 F3 C |"Gm" D8- | D2 D2 G2 D2 | %36
w: * Sing once a-|gain with me|_ our strange du-|et;|_ my pow- er|
w: |||||
"Csus4" F3 E"Cm" E4- |"F" E2 C2 F3 C |"Gm" D8 | z2 D2 G2 B2 |"Ebmaj7" d3 c-"Cm/Eb" c4- | %41
w: ov- er you|_ grows sgtrong- er|yet.|And though you|turn from me|
w: |||||
"F" c2 c2 f3 c |"Gm" d8- | d4 z2 d2 | g8- | gfed cBAG |"Cdim" ^F8- |"F#dim" F2 E2 E3 D |"Gm" D8- | %49
w: _ to glance be-|hind|_ the|phan-|* tom of the op- er- a is|there|_ in- side your|mind.|
w: ||||||||
 D4"Gm" g"F#m"^f"Fm"=f"E"f |"Eb" _e8 |"D""D7" d8 |[K:G]"Em" e8- |"^CHRISTINE" e2 B,2 E2 B,2 | %54
w: _ _ _ _ _||||* those who have|
w: |||||
"Asus4" D3 C"Am" C4- |"D/F#" C2 A,2 D3 A, |"Em/B" B,8- | B,2 B,2 E2 B,2 |"Asus4" D3 C"Am" C4- | %59
w: seen your face|_ draw back in|fear.|_ I am the|mask you wear,|
w: |||||
"D/F#""^PHANTOM" C2 A2 d3 A |"Em/B" B8 | z2"^CHRISTINE" B,2 E2 B2 |"Cmaj7" B3 A"Am/C" A4- | %63
w: _ it's me they|hear.|Your spi- rit|and my voice|
w: ||||
"D" A2 A2 d3 A |"Em" B8- | B4 z2 B2 |"Em" e8- | edcB AGFE |"Cdim" ^D8 | z2 C2 C3 B, |"Em" B,6 f2 | %71
w: _ in one com-|bined;|_ the|phan-|* tome of the op- er- a is|there|in- side my|mind (the|
w: ||||||||
 f3 e e3 e |"C" e4 b4- | b6 e2 |"Em" e6 f2 | f3 e e3 e |"C" e4 b4- | b8 |[K:Ab]"Fm" fFBF ABA"Eb"e | %79
w: phan- tom of the|op- era.|* Be-|ware the|phan- tom of the|op- era.)|||
w: ||||||||
"Fm" f2"^PHANTOM" C2 F2 C2 |"Db" E3 D D4- |"Eb" D2 B,2 E3 B, |"Fm" C8- | C2 C2 F2 C2 | %84
w: * In all your|fan- ta- sies|_ you al- ways|knew|_ that man and|
w: |||||
"Db" E3 D D4- |"Eb" D2"^CHRISTINE" B,2 E3 B, |"Fm" C8 | z2 C2 F2 A2 |"Dbmaj7" c3 B"Bbm/Db" B4- | %89
w: mys- ter- y|_ were both in|you.|And in this|la- by- rinth|
w: |||||
"Eb" B2 B2 e3 B |"Fm" c8- | c4 z2 c2 |"Fm" f8- | fedc BAGF |"Dbdim" =E8- | E2 D2 D3 C |"Fm" C6 G2 | %97
w: _ where night is|blind,|_ the|phan-|* tom of the op- er- a is|here|_ in- side my||
w: ||||||||
 G3"^PHANTOM" F F3 F |"Db" F4 c4- | c6"^CHRISTINE" F2 |"Fm" F6 G2 | G3 F F3 F |"Db" F4 c4- | %103
w: * (Spoken) Sing,~my angel|of music!|* He's|there the|phan- tom of the|op- era|
w: * ~~~~~~ * *||||* * * ~~~~~~||
 c6 z2 |"Fm" a6 (3gag | f3 g f3 e |"Db" f4"^PHANTOM" a4- | a6 z2 |: %108
w: _|Ah! _ _ _|_ _ _ _|* Sing,~my|angel~~sing!|
w: ||||~~~~|
[K:Bb]"Gm""^CHRISTINE" b6 (3aba | g3 a g3 f |1"Eb""^PHANTOM" g4 b4- || b6 z2 :|2 b6 z2 || %113
w: Ah! _ _ _|_ _ _ _|sing~~for me!|_||
w: |||||
[K:C]"Am""^CHRISTINE" c'6 (3bc'b | a3 b a3 g | a4"^PHANTOM" c'4- | c'6 z2 |"Am""^CHRISTINE" c'8- | %118
w: Ah! _ _ _|_ _ _ _|* sing,~my|angel~of~music!|Ah!|
w: |||||
 c'6 z2 |"F" c'8- | c'6 z2 |"Am" c'8- | c'4 z4 |[M:6/4]"Am" e'12 |] %124
w: _|Ah!|_|Ah!|_||
w: ||||||

